svg/color/crt.svg

<?xml version="1.0" encoding="UTF-8" ?>
<!DOCTYPE svg PUBLIC "-//W3C//DTD SVG 1.1//EN" "http://www.w3.org/Graphics/SVG/1.1/DTD/svg11.dtd">
<svg width="250pt" height="250pt" viewBox="0 0 250 250" version="1.1" xmlns="http://www.w3.org/2000/svg">
<g id="#ffffffff">
<path fill="#ffffff" opacity="1.00" d=" M 0.00 0.00 L 250.00 0.00 L 250.00 250.00 L 0.00 250.00 L 0.00 0.00 M 233.47 7.48 C 229.25 9.35 229.27 15.58 232.98 17.96 C 237.36 21.01 243.78 16.28 241.97 11.19 C 241.16 7.39 236.73 6.31 233.47 7.48 M 201.40 9.41 C 196.54 10.79 196.11 18.24 200.64 20.36 C 204.71 22.97 210.29 18.61 209.26 14.04 C 208.84 10.38 204.77 8.17 201.40 9.41 M 223.42 18.44 C 221.31 19.06 219.87 20.87 218.31 22.31 C 211.45 29.42 204.34 36.30 197.45 43.37 C 193.78 46.60 196.22 53.57 201.08 53.73 C 204.01 54.21 205.99 51.67 207.92 49.92 C 214.81 42.82 221.92 35.93 228.81 28.83 C 231.24 26.73 231.62 22.86 229.69 20.31 C 228.28 18.37 225.62 17.98 223.42 18.44 M 190.46 20.50 C 187.23 22.07 185.02 25.03 182.29 27.27 C 167.60 39.69 148.28 46.69 128.99 45.66 C 105.50 44.58 81.95 54.83 66.51 72.50 C 56.44 84.12 49.38 98.66 47.77 114.05 C 47.31 118.69 46.23 123.33 46.76 128.01 C 47.28 133.00 48.28 137.93 48.62 142.94 C 49.57 154.39 45.42 166.18 37.60 174.59 C 35.83 176.60 33.97 179.10 34.77 181.95 C 35.43 185.71 40.41 187.74 43.49 185.51 C 47.10 182.77 49.83 178.66 54.37 177.32 C 64.10 173.68 75.72 182.71 74.77 193.01 C 74.89 196.68 73.35 200.21 70.85 202.86 C 65.89 208.21 60.41 213.08 55.49 218.49 C 54.19 220.06 52.68 221.81 52.66 223.96 C 53.01 226.76 55.19 229.58 58.17 229.76 C 61.30 230.17 63.36 227.30 65.51 225.53 C 80.09 211.29 100.62 203.24 121.02 204.27 C 141.23 205.25 161.75 198.36 176.96 184.95 C 189.92 173.87 198.63 158.37 202.65 141.90 C 204.63 131.90 204.78 121.55 203.22 111.47 C 200.94 99.00 204.42 85.44 212.93 75.95 C 214.53 73.92 216.82 71.84 216.41 69.00 C 216.31 65.19 211.74 62.32 208.33 64.21 C 204.38 66.54 201.76 70.75 197.35 72.40 C 190.45 75.76 182.32 71.57 178.31 65.69 C 175.86 62.69 176.10 58.58 176.28 54.95 C 176.32 51.37 178.79 48.55 181.09 46.09 C 185.70 41.36 190.52 36.84 195.05 32.04 C 196.79 30.18 198.58 27.80 198.07 25.09 C 197.68 21.63 193.67 19.36 190.46 20.50 M 190.30 52.43 C 184.92 52.86 183.11 60.56 187.45 63.52 C 190.91 66.39 196.83 63.32 196.66 58.88 C 197.19 55.33 193.78 52.05 190.30 52.43 M 222.30 52.43 C 221.09 52.61 219.98 53.21 219.00 53.93 C 216.38 55.48 217.03 59.03 217.47 61.55 C 219.49 65.00 224.82 65.72 227.33 62.37 C 231.08 58.68 227.31 51.88 222.30 52.43 M 27.37 185.42 C 22.30 186.05 20.39 193.51 24.71 196.34 C 27.46 198.79 31.56 197.20 33.54 194.58 C 33.97 192.56 34.00 190.43 33.52 188.42 C 32.17 186.51 29.79 184.98 27.37 185.42 M 59.38 185.43 C 53.95 185.97 52.14 194.57 57.27 196.80 C 60.25 198.74 64.55 196.82 65.66 193.61 C 67.43 189.74 63.65 184.61 59.38 185.43 M 47.47 196.49 C 45.36 197.60 43.76 199.43 42.08 201.08 C 35.36 208.01 28.35 214.67 21.72 221.68 C 19.87 223.44 19.72 226.26 20.45 228.58 C 22.29 232.34 28.00 232.78 30.65 229.65 C 37.56 222.89 44.23 215.89 51.16 209.14 C 53.04 207.16 55.45 205.00 55.24 202.00 C 55.21 198.16 51.14 195.15 47.47 196.49 M 45.42 229.34 C 42.01 230.69 40.43 235.30 42.65 238.33 C 44.86 242.02 51.02 241.63 52.80 237.72 C 55.74 233.35 50.15 226.98 45.42 229.34 M 12.43 231.45 C 9.26 232.96 7.44 237.29 9.69 240.31 C 12.22 244.82 20.47 243.36 20.64 237.89 C 21.39 233.31 16.63 229.94 12.43 231.45 Z" />
<path fill="#ffffff" opacity="1.00" d=" M 107.51 92.04 C 107.34 89.67 109.56 87.25 111.95 87.37 C 118.65 87.25 125.35 87.29 132.05 87.35 C 134.20 87.05 136.47 88.75 136.52 90.97 C 136.77 97.13 136.65 103.30 136.53 109.47 C 134.56 109.14 132.01 110.21 130.40 108.84 C 130.05 103.92 130.55 98.98 130.20 94.06 C 129.88 93.75 129.23 93.14 128.90 92.83 C 123.99 92.63 119.02 92.40 114.15 93.19 C 113.69 96.11 113.72 99.06 113.74 102.01 C 113.83 119.59 113.64 137.18 113.84 154.76 C 119.30 155.28 124.79 155.28 130.25 154.85 C 130.44 148.98 130.05 143.10 130.51 137.24 C 132.54 137.35 134.57 137.38 136.61 137.43 C 136.57 143.97 136.81 150.52 136.52 157.06 C 136.49 158.95 134.73 160.71 132.82 160.64 C 125.90 160.88 118.96 160.76 112.04 160.71 C 109.53 160.89 107.36 158.37 107.50 155.96 C 107.47 134.66 107.47 113.35 107.51 92.04 Z" />
</g>
<g id="#ccbc88ff">
<path fill="#ccbc88" opacity="1.00" d=" M 233.47 7.48 C 236.73 6.31 241.16 7.39 241.97 11.19 C 243.78 16.28 237.36 21.01 232.98 17.96 C 229.27 15.58 229.25 9.35 233.47 7.48 Z" />
<path fill="#ccbc88" opacity="1.00" d=" M 201.40 9.41 C 204.77 8.17 208.84 10.38 209.26 14.04 C 210.29 18.61 204.71 22.97 200.64 20.36 C 196.11 18.24 196.54 10.79 201.40 9.41 Z" />
<path fill="#ccbc88" opacity="1.00" d=" M 223.42 18.44 C 225.62 17.98 228.28 18.37 229.69 20.31 C 231.62 22.86 231.24 26.73 228.81 28.83 C 221.92 35.93 214.81 42.82 207.92 49.92 C 205.99 51.67 204.01 54.21 201.08 53.73 C 196.22 53.57 193.78 46.60 197.45 43.37 C 204.34 36.30 211.45 29.42 218.31 22.31 C 219.87 20.87 221.31 19.06 223.42 18.44 Z" />
<path fill="#ccbc88" opacity="1.00" d=" M 190.46 20.50 C 193.67 19.36 197.68 21.63 198.07 25.09 C 198.58 27.80 196.79 30.18 195.05 32.04 C 190.52 36.84 185.70 41.36 181.09 46.09 C 178.79 48.55 176.32 51.37 176.28 54.95 C 176.10 58.58 175.86 62.69 178.31 65.69 C 182.32 71.57 190.45 75.76 197.35 72.40 C 201.76 70.75 204.38 66.54 208.33 64.21 C 211.74 62.32 216.31 65.19 216.41 69.00 C 216.82 71.84 214.53 73.92 212.93 75.95 C 204.42 85.44 200.94 99.00 203.22 111.47 C 204.78 121.55 204.63 131.90 202.65 141.90 C 198.63 158.37 189.92 173.87 176.96 184.95 C 161.75 198.36 141.23 205.25 121.02 204.27 C 100.62 203.24 80.09 211.29 65.51 225.53 C 63.36 227.30 61.30 230.17 58.17 229.76 C 55.19 229.58 53.01 226.76 52.66 223.96 C 52.68 221.81 54.19 220.06 55.49 218.49 C 60.41 213.08 65.89 208.21 70.85 202.86 C 73.35 200.21 74.89 196.68 74.77 193.01 C 75.72 182.71 64.10 173.68 54.37 177.32 C 49.83 178.66 47.10 182.77 43.49 185.51 C 40.41 187.74 35.43 185.71 34.77 181.95 C 33.97 179.10 35.83 176.60 37.60 174.59 C 45.42 166.18 49.57 154.39 48.62 142.94 C 48.28 137.93 47.28 133.00 46.76 128.01 C 46.23 123.33 47.31 118.69 47.77 114.05 C 49.38 98.66 56.44 84.12 66.51 72.50 C 81.95 54.83 105.50 44.58 128.99 45.66 C 148.28 46.69 167.60 39.69 182.29 27.27 C 185.02 25.03 187.23 22.07 190.46 20.50 M 115.37 59.35 C 91.83 62.57 71.15 80.04 63.42 102.41 C 56.79 120.84 58.39 142.42 68.82 159.15 C 76.38 171.99 88.51 181.83 102.25 187.43 C 116.88 192.70 133.32 192.74 148.02 187.70 C 165.59 180.90 180.57 166.80 187.03 148.93 C 192.45 135.22 193.04 119.65 188.58 105.59 C 183.67 89.30 172.33 74.84 157.32 66.71 C 144.64 59.76 129.66 57.02 115.37 59.35 Z" />
<path fill="#ccbc88" opacity="1.00" d=" M 190.30 52.43 C 193.78 52.05 197.19 55.33 196.66 58.88 C 196.83 63.32 190.91 66.39 187.45 63.52 C 183.11 60.56 184.92 52.86 190.30 52.43 Z" />
<path fill="#ccbc88" opacity="1.00" d=" M 222.30 52.43 C 227.31 51.88 231.08 58.68 227.33 62.37 C 224.82 65.72 219.49 65.00 217.47 61.55 C 217.03 59.03 216.38 55.48 219.00 53.93 C 219.98 53.21 221.09 52.61 222.30 52.43 Z" />
<path fill="#ccbc88" opacity="1.00" d=" M 27.37 185.42 C 29.79 184.98 32.17 186.51 33.52 188.42 C 34.00 190.43 33.97 192.56 33.54 194.58 C 31.56 197.20 27.46 198.79 24.71 196.34 C 20.39 193.51 22.30 186.05 27.37 185.42 Z" />
<path fill="#ccbc88" opacity="1.00" d=" M 59.38 185.43 C 63.65 184.61 67.43 189.74 65.66 193.61 C 64.55 196.82 60.25 198.74 57.27 196.80 C 52.14 194.57 53.95 185.97 59.38 185.43 Z" />
<path fill="#ccbc88" opacity="1.00" d=" M 47.47 196.49 C 51.14 195.15 55.21 198.16 55.24 202.00 C 55.45 205.00 53.04 207.16 51.16 209.14 C 44.23 215.89 37.56 222.89 30.65 229.65 C 28.00 232.78 22.29 232.34 20.45 228.58 C 19.72 226.26 19.87 223.44 21.72 221.68 C 28.35 214.67 35.36 208.01 42.08 201.08 C 43.76 199.43 45.36 197.60 47.47 196.49 Z" />
<path fill="#ccbc88" opacity="1.00" d=" M 45.42 229.34 C 50.15 226.98 55.74 233.35 52.80 237.72 C 51.02 241.63 44.86 242.02 42.65 238.33 C 40.43 235.30 42.01 230.69 45.42 229.34 Z" />
<path fill="#ccbc88" opacity="1.00" d=" M 12.43 231.45 C 16.63 229.94 21.39 233.31 20.64 237.89 C 20.47 243.36 12.22 244.82 9.69 240.31 C 7.44 237.29 9.26 232.96 12.43 231.45 Z" />
</g>
<g id="#101029ff">
<path fill="#101029" opacity="1.00" d=" M 115.37 59.35 C 129.66 57.02 144.64 59.76 157.32 66.71 C 172.33 74.84 183.67 89.30 188.58 105.59 C 193.04 119.65 192.45 135.22 187.03 148.93 C 180.57 166.80 165.59 180.90 148.02 187.70 C 133.32 192.74 116.88 192.70 102.25 187.43 C 88.51 181.83 76.38 171.99 68.82 159.15 C 58.39 142.42 56.79 120.84 63.42 102.41 C 71.15 80.04 91.83 62.57 115.37 59.35 M 107.51 92.04 C 107.47 113.35 107.47 134.66 107.50 155.96 C 107.36 158.37 109.53 160.89 112.04 160.71 C 118.96 160.76 125.90 160.88 132.82 160.64 C 134.73 160.71 136.49 158.95 136.52 157.06 C 136.81 150.52 136.57 143.97 136.61 137.43 C 134.57 137.38 132.54 137.35 130.51 137.24 C 130.05 143.10 130.44 148.98 130.25 154.85 C 124.79 155.28 119.30 155.28 113.84 154.76 C 113.64 137.18 113.83 119.59 113.74 102.01 C 113.72 99.06 113.69 96.11 114.15 93.19 C 119.02 92.40 123.99 92.63 128.90 92.83 C 129.23 93.14 129.88 93.75 130.20 94.06 C 130.55 98.98 130.05 103.92 130.40 108.84 C 132.01 110.21 134.56 109.14 136.53 109.47 C 136.65 103.30 136.77 97.13 136.52 90.97 C 136.47 88.75 134.20 87.05 132.05 87.35 C 125.35 87.29 118.65 87.25 111.95 87.37 C 109.56 87.25 107.34 89.67 107.51 92.04 Z" />
</g>
</svg>

<?xml version="1.0" encoding="utf-8"?>
<!-- Generator: Adobe Illustrator 26.0.3, SVG Export Plug-In . SVG Version: 6.00 Build 0)  -->
<svg version="1.1" id="Layer_1" xmlns="http://www.w3.org/2000/svg" xmlns:xlink="http://www.w3.org/1999/xlink" x="0px" y="0px"
	 viewBox="0 0 250 250" style="enable-background:new 0 0 250 250;" xml:space="preserve">
<style type="text/css">
	.st0{fill:#FFFFFF;}
	.st1{fill:#CCBC88;}
	.st2{fill:#101029;}
</style>
<g id="_x23_ffffffff">
	<path class="st0" d="M107.5,92c-0.2-2.4,2-4.8,4.4-4.7c6.7-0.1,13.4-0.1,20.1,0c2.1-0.3,4.4,1.4,4.5,3.6c0.2,6.2,0.1,12.3,0,18.5
		c-2-0.3-4.5,0.7-6.1-0.6c-0.3-4.9,0.2-9.9-0.2-14.8c-0.3-0.3-1-0.9-1.3-1.2c-4.9-0.2-9.9-0.4-14.7,0.4c-0.5,2.9-0.4,5.9-0.4,8.8
		c0.1,17.6-0.1,35.2,0.1,52.7c5.5,0.5,11,0.5,16.4,0.1c0.2-5.9-0.2-11.8,0.3-17.6c2,0.1,4.1,0.1,6.1,0.2c0,6.5,0.2,13.1-0.1,19.6
		c0,1.9-1.8,3.7-3.7,3.6c-6.9,0.2-13.9,0.1-20.8,0.1c-2.5,0.2-4.7-2.3-4.5-4.8C107.5,134.7,107.5,113.3,107.5,92z"/>
</g>
<g id="_x23_ccbc88ff">
	<path class="st1" d="M233.5,7.5c3.3-1.2,7.7-0.1,8.5,3.7c1.8,5.1-4.6,9.8-9,6.8C229.3,15.6,229.2,9.4,233.5,7.5z"/>
	<path class="st1" d="M201.4,9.4c3.4-1.2,7.4,1,7.9,4.6c1,4.6-4.5,8.9-8.6,6.3C196.1,18.2,196.5,10.8,201.4,9.4z"/>
	<path class="st1" d="M223.4,18.4c2.2-0.5,4.9-0.1,6.3,1.9c1.9,2.6,1.6,6.4-0.9,8.5c-6.9,7.1-14,14-20.9,21.1
		c-1.9,1.8-3.9,4.3-6.8,3.8c-4.9-0.2-7.3-7.1-3.6-10.4c6.9-7.1,14-13.9,20.9-21.1C219.9,20.9,221.3,19.1,223.4,18.4z"/>
	<path class="st1" d="M190.5,20.5c3.2-1.1,7.2,1.1,7.6,4.6c0.5,2.7-1.3,5.1-3,7c-4.5,4.8-9.4,9.3-14,14c-2.3,2.5-4.8,5.3-4.8,8.9
		c-0.2,3.6-0.4,7.7,2,10.7c4,5.9,12.1,10.1,19,6.7c4.4-1.7,7-5.9,11-8.2c3.4-1.9,8,1,8.1,4.8c0.4,2.8-1.9,4.9-3.5,6.9
		c-8.5,9.5-12,23.1-9.7,35.5c1.6,10.1,1.4,20.4-0.6,30.4c-4,16.5-12.7,32-25.7,43.1c-15.2,13.4-35.7,20.3-55.9,19.3
		c-20.4-1-40.9,7-55.5,21.3c-2.2,1.8-4.2,4.6-7.3,4.2c-3-0.2-5.2-3-5.5-5.8c0-2.2,1.5-3.9,2.8-5.5c4.9-5.4,10.4-10.3,15.4-15.6
		c2.5-2.6,4-6.2,3.9-9.9c1-10.3-10.7-19.3-20.4-15.7c-4.5,1.3-7.3,5.4-10.9,8.2c-3.1,2.2-8.1,0.2-8.7-3.6c-0.8-2.8,1.1-5.3,2.8-7.4
		c7.8-8.4,12-20.2,11-31.6c-0.3-5-1.3-9.9-1.9-14.9c-0.5-4.7,0.6-9.3,1-14c1.6-15.4,8.7-29.9,18.7-41.6c15.4-17.7,39-27.9,62.5-26.8
		c19.3,1,38.6-6,53.3-18.4C185,25,187.2,22.1,190.5,20.5 M115.4,59.3c-23.5,3.2-44.2,20.7-52,43.1c-6.6,18.4-5,40,5.4,56.7
		c7.6,12.8,19.7,22.7,33.4,28.3c14.6,5.3,31.1,5.3,45.8,0.3c17.6-6.8,32.6-20.9,39-38.8c5.4-13.7,6-29.3,1.6-43.3
		c-4.9-16.3-16.2-30.8-31.3-38.9C144.6,59.8,129.7,57,115.4,59.3z"/>
	<path class="st1" d="M190.3,52.4c3.5-0.4,6.9,2.9,6.4,6.5c0.2,4.4-5.8,7.5-9.2,4.6C183.1,60.6,184.9,52.9,190.3,52.4z"/>
	<path class="st1" d="M222.3,52.4c5-0.5,8.8,6.2,5,9.9c-2.5,3.4-7.8,2.6-9.9-0.8c-0.4-2.5-1.1-6.1,1.5-7.6
		C220,53.2,221.1,52.6,222.3,52.4z"/>
	<path class="st1" d="M27.4,185.4c2.4-0.4,4.8,1.1,6.1,3c0.5,2,0.5,4.1,0,6.2c-2,2.6-6.1,4.2-8.8,1.8
		C20.4,193.5,22.3,186.1,27.4,185.4z"/>
	<path class="st1" d="M59.4,185.4c4.3-0.8,8,4.3,6.3,8.2c-1.1,3.2-5.4,5.1-8.4,3.2C52.1,194.6,54,186,59.4,185.4z"/>
	<path class="st1" d="M47.5,196.5c3.7-1.3,7.7,1.7,7.8,5.5c0.2,3-2.2,5.2-4.1,7.1c-6.9,6.8-13.6,13.8-20.5,20.5
		c-2.6,3.1-8.4,2.7-10.2-1.1c-0.7-2.3-0.6-5.1,1.3-6.9c6.6-7,13.6-13.7,20.4-20.6C43.8,199.4,45.4,197.6,47.5,196.5z"/>
	<path class="st1" d="M45.4,229.3c4.7-2.4,10.3,4,7.4,8.4c-1.8,3.9-7.9,4.3-10.1,0.6C40.4,235.3,42,230.7,45.4,229.3z"/>
	<path class="st1" d="M12.4,231.4c4.2-1.5,9,1.9,8.2,6.4c-0.2,5.5-8.4,6.9-10.9,2.4C7.4,237.3,9.3,233,12.4,231.4z"/>
</g>
<g id="_x23_101029ff">
	<path class="st2" d="M115.4,59.3c14.3-2.3,29.3,0.4,42,7.4c15,8.1,26.3,22.6,31.3,38.9c4.5,14.1,3.9,29.6-1.6,43.3
		c-6.5,17.9-21.4,32-39,38.8c-14.7,5-31.1,5-45.8-0.3c-13.7-5.6-25.9-15.4-33.4-28.3c-10.4-16.7-12-38.3-5.4-56.7
		C71.2,80,91.8,62.6,115.4,59.3 M107.5,92c0,21.3,0,42.6,0,63.9c-0.1,2.4,2,4.9,4.5,4.8c6.9,0,13.9,0.2,20.8-0.1
		c1.9,0.1,3.7-1.7,3.7-3.6c0.3-6.5,0.1-13.1,0.1-19.6c-2,0-4.1-0.1-6.1-0.2c-0.5,5.9-0.1,11.7-0.3,17.6c-5.5,0.4-10.9,0.4-16.4-0.1
		c-0.2-17.6,0-35.2-0.1-52.7c0-3,0-5.9,0.4-8.8c4.9-0.8,9.8-0.6,14.7-0.4c0.3,0.3,1,0.9,1.3,1.2c0.4,4.9-0.1,9.9,0.2,14.8
		c1.6,1.4,4.2,0.3,6.1,0.6c0.1-6.2,0.2-12.3,0-18.5c-0.1-2.2-2.3-3.9-4.5-3.6c-6.7-0.1-13.4-0.1-20.1,0
		C109.6,87.2,107.3,89.7,107.5,92z"/>
</g>
</svg>
